icons/modern/ice-hockey.svg

<svg width="32" height="32" viewBox="0 0 32 32" fill="none" xmlns="http://www.w3.org/2000/svg">
<g filter="url(#filter0_ii_18_2515)">
<path d="M14.76 20.3911H6.09C3.83 20.3911 2 22.2211 2 24.4811C2 26.7411 3.83 28.5711 6.09 28.5711H14.76C17.72 28.5711 20.4 26.8411 21.61 24.1411L29.85 5.80113C29.95 5.58113 30 5.35113 30 5.11113C30 3.30113 27.53 2.77113 26.79 4.42113L21.61 15.9511C20.39 18.6611 17.71 20.3911 14.76 20.3911Z" fill="#FFBEAF"/>
<path d="M14.76 20.3911H6.09C3.83 20.3911 2 22.2211 2 24.4811C2 26.7411 3.83 28.5711 6.09 28.5711H14.76C17.72 28.5711 20.4 26.8411 21.61 24.1411L29.85 5.80113C29.95 5.58113 30 5.35113 30 5.11113C30 3.30113 27.53 2.77113 26.79 4.42113L21.61 15.9511C20.39 18.6611 17.71 20.3911 14.76 20.3911Z" fill="url(#paint0_radial_18_2515)"/>
<path d="M14.76 20.3911H6.09C3.83 20.3911 2 22.2211 2 24.4811C2 26.7411 3.83 28.5711 6.09 28.5711H14.76C17.72 28.5711 20.4 26.8411 21.61 24.1411L29.85 5.80113C29.95 5.58113 30 5.35113 30 5.11113C30 3.30113 27.53 2.77113 26.79 4.42113L21.61 15.9511C20.39 18.6611 17.71 20.3911 14.76 20.3911Z" fill="url(#paint1_radial_18_2515)"/>
<path d="M14.76 20.3911H6.09C3.83 20.3911 2 22.2211 2 24.4811C2 26.7411 3.83 28.5711 6.09 28.5711H14.76C17.72 28.5711 20.4 26.8411 21.61 24.1411L29.85 5.80113C29.95 5.58113 30 5.35113 30 5.11113C30 3.30113 27.53 2.77113 26.79 4.42113L21.61 15.9511C20.39 18.6611 17.71 20.3911 14.76 20.3911Z" fill="url(#paint2_radial_18_2515)"/>
</g>
<path d="M9.99997 20.3911H7.19998L6.09998 28.5811H8.89996L9.99997 20.3911Z" fill="#D4C9D8"/>
<path d="M9.99997 20.3911H7.19998L6.09998 28.5811H8.89996L9.99997 20.3911Z" fill="url(#paint3_linear_18_2515)"/>
<path d="M9.99997 20.3911H7.19998L6.09998 28.5811H8.89996L9.99997 20.3911Z" fill="url(#paint4_linear_18_2515)"/>
<path d="M9.99997 20.3911H7.19998L6.09998 28.5811H8.89996L9.99997 20.3911Z" fill="url(#paint5_radial_18_2515)"/>
<path d="M12.8 20.3911H10L8.90002 28.5811H11.7L12.8 20.3911Z" fill="#D4C9D8"/>
<path d="M12.8 20.3911H10L8.90002 28.5811H11.7L12.8 20.3911Z" fill="url(#paint6_linear_18_2515)"/>
<path d="M12.8 20.3911H10L8.90002 28.5811H11.7L12.8 20.3911Z" fill="url(#paint7_linear_18_2515)"/>
<path d="M12.8003 20.3911H14.76C15.0418 20.3911 15.3212 20.3753 15.5971 20.3444L14.5013 28.5711H11.7014L12.8003 20.3911Z" fill="url(#paint8_linear_18_2515)"/>
<path d="M12.8003 20.3911H14.76C15.0418 20.3911 15.3212 20.3753 15.5971 20.3444L14.5013 28.5711H11.7014L12.8003 20.3911Z" fill="url(#paint9_linear_18_2515)"/>
<g filter="url(#filter1_i_18_2515)">
<path d="M26.79 4.4311L20.9 17.2011L23.99 18.8511L29.85 5.80113C29.95 5.58113 30 5.35113 30 5.11113C30 3.31113 27.54 2.7811 26.79 4.4311Z" fill="url(#paint10_radial_18_2515)"/>
</g>
<g filter="url(#filter2_i_18_2515)">
<path d="M26.79 4.4311L25.14 8.00111L28.25 9.37111L29.85 5.81111C29.95 5.59111 30 5.36111 30 5.12111C30 3.31111 27.54 2.7811 26.79 4.4311Z" fill="#634DA2"/>
<path d="M26.79 4.4311L25.14 8.00111L28.25 9.37111L29.85 5.81111C29.95 5.59111 30 5.36111 30 5.12111C30 3.31111 27.54 2.7811 26.79 4.4311Z" fill="url(#paint11_radial_18_2515)"/>
</g>
<g filter="url(#filter3_ii_18_2515)">
<path d="M29.12 24.9711H23.65C23.16 24.9711 22.77 25.3711 22.77 25.8511V27.6911C22.77 28.1811 23.17 28.5711 23.65 28.5711H29.12C29.61 28.5711 30 28.1711 30 27.6911V25.8511C30 25.3611 29.61 24.9711 29.12 24.9711Z" fill="url(#paint12_linear_18_2515)"/>
<path d="M29.12 24.9711H23.65C23.16 24.9711 22.77 25.3711 22.77 25.8511V27.6911C22.77 28.1811 23.17 28.5711 23.65 28.5711H29.12C29.61 28.5711 30 28.1711 30 27.6911V25.8511C30 25.3611 29.61 24.9711 29.12 24.9711Z" fill="url(#paint13_linear_18_2515)"/>
</g>
<defs>
<filter id="filter0_ii_18_2515" x="2" y="2.82889" width="28" height="26.3422" filterUnits="userSpaceOnUse" color-interpolation-filters="sRGB">
<feFlood flood-opacity="0" result="BackgroundImageFix"/>
<feBlend mode="normal" in="SourceGraphic" in2="BackgroundImageFix" result="shape"/>
<feColorMatrix in="SourceAlpha" type="matrix" values="0 0 0 0 0 0 0 0 0 0 0 0 0 0 0 0 0 0 127 0" result="hardAlpha"/>
<feOffset dy="-0.6"/>
<feGaussianBlur stdDeviation="0.5"/>
<feComposite in2="hardAlpha" operator="arithmetic" k2="-1" k3="1"/>
<feColorMatrix type="matrix" values="0 0 0 0 0.956863 0 0 0 0 0.494118 0 0 0 0 0.701961 0 0 0 1 0"/>
<feBlend mode="normal" in2="shape" result="effect1_innerShadow_18_2515"/>
<feColorMatrix in="SourceAlpha" type="matrix" values="0 0 0 0 0 0 0 0 0 0 0 0 0 0 0 0 0 0 127 0" result="hardAlpha"/>
<feOffset dy="0.6"/>
<feGaussianBlur stdDeviation="0.5"/>
<feComposite in2="hardAlpha" operator="arithmetic" k2="-1" k3="1"/>
<feColorMatrix type="matrix" values="0 0 0 0 0.898039 0 0 0 0 0.635294 0 0 0 0 0.458824 0 0 0 1 0"/>
<feBlend mode="normal" in2="effect1_innerShadow_18_2515" result="effect2_innerShadow_18_2515"/>
</filter>
<filter id="filter1_i_18_2515" x="20.9" y="3.43817" width="9.09998" height="16.4129" filterUnits="userSpaceOnUse" color-interpolation-filters="sRGB">
<feFlood flood-opacity="0" result="BackgroundImageFix"/>
<feBlend mode="normal" in="SourceGraphic" in2="BackgroundImageFix" result="shape"/>
<feColorMatrix in="SourceAlpha" type="matrix" values="0 0 0 0 0 0 0 0 0 0 0 0 0 0 0 0 0 0 127 0" result="hardAlpha"/>
<feOffset dy="1"/>
<feGaussianBlur stdDeviation="0.5"/>
<feComposite in2="hardAlpha" operator="arithmetic" k2="-1" k3="1"/>
<feColorMatrix type="matrix" values="0 0 0 0 0.807843 0 0 0 0 0.270588 0 0 0 0 0.317647 0 0 0 1 0"/>
<feBlend mode="normal" in2="shape" result="effect1_innerShadow_18_2515"/>
</filter>
<filter id="filter2_i_18_2515" x="25.14" y="3.43887" width="5.25999" height="6.33224" filterUnits="userSpaceOnUse" color-interpolation-filters="sRGB">
<feFlood flood-opacity="0" result="BackgroundImageFix"/>
<feBlend mode="normal" in="SourceGraphic" in2="BackgroundImageFix" result="shape"/>
<feColorMatrix in="SourceAlpha" type="matrix" values="0 0 0 0 0 0 0 0 0 0 0 0 0 0 0 0 0 0 127 0" result="hardAlpha"/>
<feOffset dx="0.4" dy="0.4"/>
<feGaussianBlur stdDeviation="0.375"/>
<feComposite in2="hardAlpha" operator="arithmetic" k2="-1" k3="1"/>
<feColorMatrix type="matrix" values="0 0 0 0 0.356863 0 0 0 0 0.286275 0 0 0 0 0.45098 0 0 0 1 0"/>
<feBlend mode="normal" in2="shape" result="effect1_innerShadow_18_2515"/>
</filter>
<filter id="filter3_ii_18_2515" x="22.37" y="24.9711" width="8.02998" height="3.60001" filterUnits="userSpaceOnUse" color-interpolation-filters="sRGB">
<feFlood flood-opacity="0" result="BackgroundImageFix"/>
<feBlend mode="normal" in="SourceGraphic" in2="BackgroundImageFix" result="shape"/>
<feColorMatrix in="SourceAlpha" type="matrix" values="0 0 0 0 0 0 0 0 0 0 0 0 0 0 0 0 0 0 127 0" result="hardAlpha"/>
<feOffset dx="0.4"/>
<feGaussianBlur stdDeviation="0.3"/>
<feComposite in2="hardAlpha" operator="arithmetic" k2="-1" k3="1"/>
<feColorMatrix type="matrix" values="0 0 0 0 0.376471 0 0 0 0 0.235294 0 0 0 0 0.52549 0 0 0 1 0"/>
<feBlend mode="normal" in2="shape" result="effect1_innerShadow_18_2515"/>
<feColorMatrix in="SourceAlpha" type="matrix" values="0 0 0 0 0 0 0 0 0 0 0 0 0 0 0 0 0 0 127 0" result="hardAlpha"/>
<feOffset dx="-0.4"/>
<feGaussianBlur stdDeviation="0.3"/>
<feComposite in2="hardAlpha" operator="arithmetic" k2="-1" k3="1"/>
<feColorMatrix type="matrix" values="0 0 0 0 0.454902 0 0 0 0 0.431373 0 0 0 0 0.729412 0 0 0 1 0"/>
<feBlend mode="normal" in2="effect1_innerShadow_18_2515" result="effect2_innerShadow_18_2515"/>
</filter>
<radialGradient id="paint0_radial_18_2515" cx="0" cy="0" r="1" gradientUnits="userSpaceOnUse" gradientTransform="translate(13.9826 24.8539) rotate(3.32741) scale(3.66717 6.85412)">
<stop stop-color="#FFD1BA"/>
<stop offset="1" stop-color="#FFD1BA" stop-opacity="0"/>
</radialGradient>
<radialGradient id="paint1_radial_18_2515" cx="0" cy="0" r="1" gradientUnits="userSpaceOnUse" gradientTransform="translate(16.4446 24.3724) rotate(-180) scale(14.4446 8.37243)">
<stop offset="0.885559" stop-color="#EE9B76" stop-opacity="0"/>
<stop offset="1" stop-color="#EE9B76"/>
</radialGradient>
<radialGradient id="paint2_radial_18_2515" cx="0" cy="0" r="1" gradientUnits="userSpaceOnUse" gradientTransform="translate(6.90279 23.9576) rotate(98.6157) scale(5.76944 0.97573)">
<stop stop-color="#FCA095"/>
<stop offset="1" stop-color="#FCA095" stop-opacity="0"/>
</radialGradient>
<linearGradient id="paint3_linear_18_2515" x1="6.45721" y1="24.5709" x2="6.99539" y2="24.6524" gradientUnits="userSpaceOnUse">
<stop stop-color="#B799B0"/>
<stop offset="1" stop-color="#B799B0" stop-opacity="0"/>
</linearGradient>
<linearGradient id="paint4_linear_18_2515" x1="9.99997" y1="23.9258" x2="8.72977" y2="23.7696" gradientUnits="userSpaceOnUse">
<stop stop-color="#A496A3"/>
<stop offset="1" stop-color="#A496A3" stop-opacity="0"/>
</linearGradient>
<radialGradient id="paint5_radial_18_2515" cx="0" cy="0" r="1" gradientUnits="userSpaceOnUse" gradientTransform="translate(9.81039 19.6095) rotate(147.572) scale(2.27988 1.14218)">
<stop offset="0.297109" stop-color="#D8CFDA"/>
<stop offset="1" stop-color="#D8CFDA" stop-opacity="0"/>
</radialGradient>
<linearGradient id="paint6_linear_18_2515" x1="9.25726" y1="24.5709" x2="9.79544" y2="24.6524" gradientUnits="userSpaceOnUse">
<stop stop-color="#AB9BA4"/>
<stop offset="1" stop-color="#AB9BA4" stop-opacity="0"/>
</linearGradient>
<linearGradient id="paint7_linear_18_2515" x1="12.8" y1="23.9258" x2="11.8254" y2="23.8043" gradientUnits="userSpaceOnUse">
<stop stop-color="#A496A3"/>
<stop offset="1" stop-color="#A496A3" stop-opacity="0"/>
</linearGradient>
<linearGradient id="paint8_linear_18_2515" x1="12.5947" y1="24.94" x2="15.3058" y2="25.2698" gradientUnits="userSpaceOnUse">
<stop stop-color="#C8BBC9"/>
<stop offset="1" stop-color="#FCF0FE"/>
</linearGradient>
<linearGradient id="paint9_linear_18_2515" x1="11.8241" y1="24.2859" x2="13.0501" y2="24.4577" gradientUnits="userSpaceOnUse">
<stop stop-color="#A99BAD"/>
<stop offset="1" stop-color="#A99BAD" stop-opacity="0"/>
</linearGradient>
<radialGradient id="paint10_radial_18_2515" cx="0" cy="0" r="1" gradientUnits="userSpaceOnUse" gradientTransform="translate(27.5767 9.5066) rotate(114.8) scale(11.0444 4.06079)">
<stop offset="0.340558" stop-color="#FF418D"/>
<stop offset="1" stop-color="#FD2F60"/>
</radialGradient>
<radialGradient id="paint11_radial_18_2515" cx="0" cy="0" r="1" gradientUnits="userSpaceOnUse" gradientTransform="translate(30 4.62323) rotate(147.983) scale(1.65066 1.81802)">
<stop stop-color="#7A72B9"/>
<stop offset="1" stop-color="#7A72B9" stop-opacity="0"/>
</radialGradient>
<linearGradient id="paint12_linear_18_2515" x1="29.4596" y1="26.7711" x2="22.77" y2="26.7711" gradientUnits="userSpaceOnUse">
<stop stop-color="#6852B9"/>
<stop offset="1" stop-color="#6548A0"/>
</linearGradient>
<linearGradient id="paint13_linear_18_2515" x1="26.385" y1="28.9571" x2="26.385" y2="27.9258" gradientUnits="userSpaceOnUse">
<stop stop-color="#6436A0"/>
<stop offset="1" stop-color="#6436A0" stop-opacity="0"/>
</linearGradient>
</defs>
</svg>

<svg width="32" height="32" fill="none" xmlns="http://www.w3.org/2000/svg"><g filter="url(#a)"><path d="M14.76 20.391H6.09c-2.26 0-4.09 1.83-4.09 4.09s1.83 4.09 4.09 4.09h8.67c2.96 0 5.64-1.73 6.85-4.43l8.24-18.34c.1-.22.15-.45.15-.69 0-1.81-2.47-2.34-3.21-.69l-5.18 11.53a7.512 7.512 0 0 1-6.85 4.44Z" fill="#FFBEAF"/><path d="M14.76 20.391H6.09c-2.26 0-4.09 1.83-4.09 4.09s1.83 4.09 4.09 4.09h8.67c2.96 0 5.64-1.73 6.85-4.43l8.24-18.34c.1-.22.15-.45.15-.69 0-1.81-2.47-2.34-3.21-.69l-5.18 11.53a7.512 7.512 0 0 1-6.85 4.44Z" fill="url(#b)"/><path d="M14.76 20.391H6.09c-2.26 0-4.09 1.83-4.09 4.09s1.83 4.09 4.09 4.09h8.67c2.96 0 5.64-1.73 6.85-4.43l8.24-18.34c.1-.22.15-.45.15-.69 0-1.81-2.47-2.34-3.21-.69l-5.18 11.53a7.512 7.512 0 0 1-6.85 4.44Z" fill="url(#c)"/><path d="M14.76 20.391H6.09c-2.26 0-4.09 1.83-4.09 4.09s1.83 4.09 4.09 4.09h8.67c2.96 0 5.64-1.73 6.85-4.43l8.24-18.34c.1-.22.15-.45.15-.69 0-1.81-2.47-2.34-3.21-.69l-5.18 11.53a7.512 7.512 0 0 1-6.85 4.44Z" fill="url(#d)"/></g><path d="M10 20.391H7.2l-1.1 8.19h2.8l1.1-8.19Z" fill="#D4C9D8"/><path d="M10 20.391H7.2l-1.1 8.19h2.8l1.1-8.19Z" fill="url(#e)"/><path d="M10 20.391H7.2l-1.1 8.19h2.8l1.1-8.19Z" fill="url(#f)"/><path d="M10 20.391H7.2l-1.1 8.19h2.8l1.1-8.19Z" fill="url(#g)"/><path d="M12.8 20.391H10l-1.1 8.19h2.8l1.1-8.19Z" fill="#D4C9D8"/><path d="M12.8 20.391H10l-1.1 8.19h2.8l1.1-8.19Z" fill="url(#h)"/><path d="M12.8 20.391H10l-1.1 8.19h2.8l1.1-8.19Z" fill="url(#i)"/><path d="M12.8 20.391h1.96c.282 0 .561-.016.837-.047l-1.096 8.227h-2.8l1.1-8.18Z" fill="url(#j)"/><path d="M12.8 20.391h1.96c.282 0 .561-.016.837-.047l-1.096 8.227h-2.8l1.1-8.18Z" fill="url(#k)"/><g filter="url(#l)"><path d="m26.79 4.431-5.89 12.77 3.09 1.65 5.86-13.05c.1-.22.15-.45.15-.69 0-1.8-2.46-2.33-3.21-.68Z" fill="url(#m)"/></g><g filter="url(#n)"><path d="m26.79 4.431-1.65 3.57 3.11 1.37 1.6-3.56c.1-.22.15-.45.15-.69 0-1.81-2.46-2.34-3.21-.69Z" fill="#634DA2"/><path d="m26.79 4.431-1.65 3.57 3.11 1.37 1.6-3.56c.1-.22.15-.45.15-.69 0-1.81-2.46-2.34-3.21-.69Z" fill="url(#o)"/></g><g filter="url(#p)"><path d="M29.12 24.971h-5.47c-.49 0-.88.4-.88.88v1.84c0 .49.4.88.88.88h5.47c.49 0 .88-.4.88-.88v-1.84c0-.49-.39-.88-.88-.88Z" fill="url(#q)"/><path d="M29.12 24.971h-5.47c-.49 0-.88.4-.88.88v1.84c0 .49.4.88.88.88h5.47c.49 0 .88-.4.88-.88v-1.84c0-.49-.39-.88-.88-.88Z" fill="url(#r)"/></g><defs><linearGradient id="e" x1="6.457" y1="24.571" x2="6.995" y2="24.652" gradientUnits="userSpaceOnUse"><stop stop-color="#B799B0"/><stop offset="1" stop-color="#B799B0" stop-opacity="0"/></linearGradient><linearGradient id="f" x1="10" y1="23.926" x2="8.73" y2="23.77" gradientUnits="userSpaceOnUse"><stop stop-color="#A496A3"/><stop offset="1" stop-color="#A496A3" stop-opacity="0"/></linearGradient><linearGradient id="h" x1="9.257" y1="24.571" x2="9.795" y2="24.652" gradientUnits="userSpaceOnUse"><stop stop-color="#AB9BA4"/><stop offset="1" stop-color="#AB9BA4" stop-opacity="0"/></linearGradient><linearGradient id="i" x1="12.8" y1="23.926" x2="11.825" y2="23.804" gradientUnits="userSpaceOnUse"><stop stop-color="#A496A3"/><stop offset="1" stop-color="#A496A3" stop-opacity="0"/></linearGradient><linearGradient id="j" x1="12.595" y1="24.94" x2="15.306" y2="25.27" gradientUnits="userSpaceOnUse"><stop stop-color="#C8BBC9"/><stop offset="1" stop-color="#FCF0FE"/></linearGradient><linearGradient id="k" x1="11.824" y1="24.286" x2="13.05" y2="24.458" gradientUnits="userSpaceOnUse"><stop stop-color="#A99BAD"/><stop offset="1" stop-color="#A99BAD" stop-opacity="0"/></linearGradient><linearGradient id="q" x1="29.46" y1="26.771" x2="22.77" y2="26.771" gradientUnits="userSpaceOnUse"><stop stop-color="#6852B9"/><stop offset="1" stop-color="#6548A0"/></linearGradient><linearGradient id="r" x1="26.385" y1="28.957" x2="26.385" y2="27.926" gradientUnits="userSpaceOnUse"><stop stop-color="#6436A0"/><stop offset="1" stop-color="#6436A0" stop-opacity="0"/></linearGradient><radialGradient id="b" cx="0" cy="0" r="1" gradientUnits="userSpaceOnUse" gradientTransform="matrix(3.66099 .21285 -.39782 6.84257 13.983 24.854)"><stop stop-color="#FFD1BA"/><stop offset="1" stop-color="#FFD1BA" stop-opacity="0"/></radialGradient><radialGradient id="c" cx="0" cy="0" r="1" gradientUnits="userSpaceOnUse" gradientTransform="matrix(-14.4446 0 0 -8.37243 16.445 24.372)"><stop offset=".886" stop-color="#EE9B76" stop-opacity="0"/><stop offset="1" stop-color="#EE9B76"/></radialGradient><radialGradient id="d" cx="0" cy="0" r="1" gradientUnits="userSpaceOnUse" gradientTransform="rotate(98.616 -6.85 14.947) scale(5.76944 .97573)"><stop stop-color="#FCA095"/><stop offset="1" stop-color="#FCA095" stop-opacity="0"/></radialGradient><radialGradient id="g" cx="0" cy="0" r="1" gradientUnits="userSpaceOnUse" gradientTransform="rotate(147.572 2.054 11.231) scale(2.27988 1.14218)"><stop offset=".297" stop-color="#D8CFDA"/><stop offset="1" stop-color="#D8CFDA" stop-opacity="0"/></radialGradient><radialGradient id="m" cx="0" cy="0" r="1" gradientUnits="userSpaceOnUse" gradientTransform="rotate(114.8 10.748 13.571) scale(11.0444 4.06079)"><stop offset=".341" stop-color="#FF418D"/><stop offset="1" stop-color="#FD2F60"/></radialGradient><radialGradient id="o" cx="0" cy="0" r="1" gradientUnits="userSpaceOnUse" gradientTransform="matrix(-1.39958 .87513 -.96386 -1.54148 30 4.623)"><stop stop-color="#7A72B9"/><stop offset="1" stop-color="#7A72B9" stop-opacity="0"/></radialGradient><filter id="a" x="2" y="2.829" width="28" height="26.342" filterUnits="userSpaceOnUse" color-interpolation-filters="sRGB"><feFlood flood-opacity="0" result="BackgroundImageFix"/><feBlend in="SourceGraphic" in2="BackgroundImageFix" result="shape"/><feColorMatrix in="SourceAlpha" values="0 0 0 0 0 0 0 0 0 0 0 0 0 0 0 0 0 0 127 0" result="hardAlpha"/><feOffset dy="-.6"/><feGaussianBlur stdDeviation=".5"/><feComposite in2="hardAlpha" operator="arithmetic" k2="-1" k3="1"/><feColorMatrix values="0 0 0 0 0.956863 0 0 0 0 0.494118 0 0 0 0 0.701961 0 0 0 1 0"/><feBlend in2="shape" result="effect1_innerShadow_18_2515"/><feColorMatrix in="SourceAlpha" values="0 0 0 0 0 0 0 0 0 0 0 0 0 0 0 0 0 0 127 0" result="hardAlpha"/><feOffset dy=".6"/><feGaussianBlur stdDeviation=".5"/><feComposite in2="hardAlpha" operator="arithmetic" k2="-1" k3="1"/><feColorMatrix values="0 0 0 0 0.898039 0 0 0 0 0.635294 0 0 0 0 0.458824 0 0 0 1 0"/><feBlend in2="effect1_innerShadow_18_2515" result="effect2_innerShadow_18_2515"/></filter><filter id="l" x="20.9" y="3.438" width="9.1" height="16.413" filterUnits="userSpaceOnUse" color-interpolation-filters="sRGB"><feFlood flood-opacity="0" result="BackgroundImageFix"/><feBlend in="SourceGraphic" in2="BackgroundImageFix" result="shape"/><feColorMatrix in="SourceAlpha" values="0 0 0 0 0 0 0 0 0 0 0 0 0 0 0 0 0 0 127 0" result="hardAlpha"/><feOffset dy="1"/><feGaussianBlur stdDeviation=".5"/><feComposite in2="hardAlpha" operator="arithmetic" k2="-1" k3="1"/><feColorMatrix values="0 0 0 0 0.807843 0 0 0 0 0.270588 0 0 0 0 0.317647 0 0 0 1 0"/><feBlend in2="shape" result="effect1_innerShadow_18_2515"/></filter><filter id="n" x="25.14" y="3.439" width="5.26" height="6.332" filterUnits="userSpaceOnUse" color-interpolation-filters="sRGB"><feFlood flood-opacity="0" result="BackgroundImageFix"/><feBlend in="SourceGraphic" in2="BackgroundImageFix" result="shape"/><feColorMatrix in="SourceAlpha" values="0 0 0 0 0 0 0 0 0 0 0 0 0 0 0 0 0 0 127 0" result="hardAlpha"/><feOffset dx=".4" dy=".4"/><feGaussianBlur stdDeviation=".375"/><feComposite in2="hardAlpha" operator="arithmetic" k2="-1" k3="1"/><feColorMatrix values="0 0 0 0 0.356863 0 0 0 0 0.286275 0 0 0 0 0.45098 0 0 0 1 0"/><feBlend in2="shape" result="effect1_innerShadow_18_2515"/></filter><filter id="p" x="22.37" y="24.971" width="8.03" height="3.6" filterUnits="userSpaceOnUse" color-interpolation-filters="sRGB"><feFlood flood-opacity="0" result="BackgroundImageFix"/><feBlend in="SourceGraphic" in2="BackgroundImageFix" result="shape"/><feColorMatrix in="SourceAlpha" values="0 0 0 0 0 0 0 0 0 0 0 0 0 0 0 0 0 0 127 0" result="hardAlpha"/><feOffset dx=".4"/><feGaussianBlur stdDeviation=".3"/><feComposite in2="hardAlpha" operator="arithmetic" k2="-1" k3="1"/><feColorMatrix values="0 0 0 0 0.376471 0 0 0 0 0.235294 0 0 0 0 0.52549 0 0 0 1 0"/><feBlend in2="shape" result="effect1_innerShadow_18_2515"/><feColorMatrix in="SourceAlpha" values="0 0 0 0 0 0 0 0 0 0 0 0 0 0 0 0 0 0 127 0" result="hardAlpha"/><feOffset dx="-.4"/><feGaussianBlur stdDeviation=".3"/><feComposite in2="hardAlpha" operator="arithmetic" k2="-1" k3="1"/><feColorMatrix values="0 0 0 0 0.454902 0 0 0 0 0.431373 0 0 0 0 0.729412 0 0 0 1 0"/><feBlend in2="effect1_innerShadow_18_2515" result="effect2_innerShadow_18_2515"/></filter></defs></svg>
